X: 915
T: Alistair Anderson's Fancy
R: reel
M: 4/4
K: Gmajor
|(3DEF|"G"GBFG EGDC|"G"B,DGB "C"cedc|"G"BGDG BdcB|"D7"AGFG AcBA|
"G"GBFG EGDC|"G"B,D"G"GB "C"cedc|"G"Bgfe "D7"dBAc|"G"B2G2 G2:|
FG|"D7"AcFA DFAc|"G"BdGB DGBd|"C"cege "G"BdGB|AGFE DGFG|
"D7"AcFA DFAc|"G"BdGB DGBd|"C"cege dBAc|"G"B2G2 G2FG|
"D7"AcFA DFAc|"G"BdGB DGBd|"C"cege "G"BdGB|"D7"Agfe dcBA|
"G"GBFG EGDC|"G"B,DGB "C"cedc|"G"Bgfe "D7"dBAc|"G"B2G2 G2||

